img/svg/back-arrow.svg

<svg width="44" height="20" viewBox="0 0 44 20" fill="none" xmlns="http://www.w3.org/2000/svg">
<path d="M4.90427 11.4286L11.0707 17.5613C11.6317 18.1192 11.6317 19.0237 11.0707 19.5816C10.5097 20.1395 9.60024 20.1395 9.03928 19.5816L0.420719 11.0102C-0.14024 10.4523 -0.14024 9.54774 0.420719 8.98985L9.03928 0.418417C9.60024 -0.139474 10.5097 -0.139474 11.0707 0.418417C11.6317 0.976309 11.6317 1.88083 11.0707 2.43872L4.90427 8.57143L42.5636 8.57143C43.3569 8.57143 44 9.21102 44 10C44 10.789 43.3569 11.4286 42.5636 11.4286L4.90427 11.4286Z" fill="#1B3C65"/>
</svg>

<svg width="44" height="20" viewBox="0 0 44 20" fill="none" xmlns="http://www.w3.org/2000/svg"><path d="M4.904 11.429l6.167 6.132a1.423 1.423 0 010 2.02 1.442 1.442 0 01-2.032 0l-8.618-8.57a1.423 1.423 0 010-2.021L9.039.418a1.442 1.442 0 012.032 0 1.423 1.423 0 010 2.02L4.904 8.572h37.66c.793 0 1.436.64 1.436 1.429s-.643 1.429-1.436 1.429H4.904z" fill="#1B3C65"/></svg>
